X:1
T:Hallelujah, I’ll Be There
T:Hallelujah, I’ll Be There
T:A. F. Myers
T:H. B. Piper, 1897
T:Public Domain Courtesy of the Cyber Hymnal™
T:Public Domain Courtesy of the Cyber Hymnal™
C:A. F. Myers
Z:Public Domain
Z:Courtesy of the Cyber Hymnal™
%%score ( 1 2 ) ( 3 4 )
L:1/8
Q:1/4=97
M:4/4
K:Ab
V:1 treble 
V:2 treble 
V:3 bass 
V:4 bass 
V:1
 [CE][CE] | [CA][CA][CA][CA] [Ec][Ec] [EA]>[DA] | [EB]6 [EB]>[Ec] | %3
w: 1.~When the|King shall come in glo- ry, I’ll be|there, And the|
w: 2.~When He|comes with trum- pet sound- ing thro’ the|air, And with|
w: 3.~When He|calls me to those man- sions all so|fair, When His|
 [Ed][Ed][Ed][Ed] [Ec][Ec] [EB]>[EB] | [Ee]6 [Ge]>[Ed] | [Ec][Ec][Ec][Ec] [Ee]2 [EA][EA] | %6
w: bliss- ful home He prom- ised I shall|share; Liv- ing|on in pure de- light, Clothed in|
w: an- gel voic- es sing- ing I’ll be|there; Earth- ly|splen- dors fade a- way, In the|
w: glor- ious robe of beau- ty I shall|wear, Which He|bought for you and me, With His|
 [Ed][Gd][Bd][Gd] [Ed]2 EE | FGAB ccdB | [EA]2 [EG]2 [EA]2 ||"^Refrain" [CE][CE] | %10
w: Hea- ven’s spot- less white, I shall|sing re- demp- tion’s sto- ry in that|world so fair.||
w: light of that blest day, When with|glo- ry bright sur- round- ed, I the|crown shall wear.|Hal- le-|
w: pre- cious blood so free, Oh, the|joy to know that ev- er, ev- er,|we’ll be there.||
 [CA][CA][CA][CA] [Ec][Ec] [Ec]>[Ec] | [EB]6 [EB]>[Ec] | [Gd][Gd][Gd][Gd] [Gd][Gd] [Gd]>[Gd] | %13
w: |||
w: lu- jah! Hal- le- lu- jah! I’ll be|there! And the|glo- ry ev- er- last- ing I shall|
w: |||
 [Ec]6 [Ec]>[Ed] | [Ae][Ae][Ae][Ae] [Ec]2 [Ec][Ec] | [Ed][Gd][Bd][Gd] [Ed]2 EE | FGAB ccdB | %17
w: ||||
w: share, While the|heav’n- ly arch- es ring With the|prais- es of our king, Oh, the|joy to know that ev- er, ev- er|
w: ||||
 [EA]2 [EG]2 !fermata![EA]2 |] %18
w: |
w: I’ll be there.|
w: |
V:2
 x2 | x8 | x8 | x8 | x8 | x8 | x6 EE | FGAB ccdB | x6 || x2 | x8 | x8 | x8 | x8 | x8 | x6 EE | %16
 FGAB ccdB | x6 |] %18
V:3
 [A,,A,][A,,A,] | [A,,E,][A,,E,][A,,E,][A,,E,] [A,,A,][A,,A,] [C,A,]>[C,A,] | %2
 [E,G,]6 [E,G,]>[E,A,] | [E,G,][E,G,][E,G,][E,G,] [E,A,][E,A,] [E,G,]>[E,G,] | %4
 [E,G,]6 [E,B,]>[G,B,] | A,A,A,A, [A,C]2 [A,C][A,C] | [E,G,][E,B,][E,D][E,B,] [E,G,]2 E,E, | %7
 F,G,A,B, CCDB, | [E,C]2 [E,B,]2 [A,,C]2 || [A,,A,][A,,A,] | %10
 [A,,A,][A,,A,][A,,A,][A,,A,] [A,,A,][A,,A,] [A,,A,]>[A,,A,] | [E,G,]6 [E,G,]>[E,A,] | %12
 [E,B,][E,B,][E,B,][E,B,] [E,B,][E,B,] [E,B,]>[E,B,] | A,6 A,[A,B,] | %14
 [A,C][A,C][A,C][A,C] A,2 A,A, | [E,G,][E,B,][E,D][E,B,] [E,G,]2 E,E, | F,G,A,B, CCDB, | %17
 [E,C]2 [E,B,]2 !fermata![A,,C]2 |] %18
V:4
 x2 | x8 | x8 | x8 | x8 | A,A,A,A, x4 | x6 E,E, | F,G,A,B, CCDB, | x6 || x2 | x8 | x8 | x8 | %13
 A,6 A, x | x4 A,2 A,A, | x7 E, | F,G,A,B, CCDB, | x6 |] %18

